X:1
T:Brave General Brock
M:6/8
L:1/4
K:G
 D- G/2| G A/2 B G/2| E D/2 B, D/2| E A/2 A B/2| A3/2 z D/2| G A/2 B c/2|\
 d/4 B/4- B A G/2| G B/2d/2 e| d3/2 z B/2| c d/2 e3/4 c3/4| B/2- d d B/4B/4|\
 A G/2 G B/2| A3/2 z B/2| D E/2 G A/2| E D/2 B, D/2| D E/2 G F/2| G z||\
